X:1
T:赤い靴
T:赤い靴
T:Akai Kutsu
T:本居 長世 Nagayo Motoori 
T:野口 雨情 Ujyō Noguchi 
T:1922
T:１．赤い靴　はいてた　女の子 異人さんに　つれられて　行っちゃった
T:２．横浜の　埠頭から　汽船に乗って 異人さんに　つれられて　行っちゃった
T:３．今では　青い目に　なっちゃって 異人さんの　お国に　いるんだろう
T:４．赤い靴　見るたび　考える 異人さんに　逢うたび　考える
T:Akai Kutsu - Romaji - ローマ字 - 赤い靴
T:1922
C:本居 長世 Nagayo Motoori
Z:野口 雨情 Ujyō Noguchi
Z:1922
L:1/8
Q:1/4=74
M:4/4
K:C
V:1 treble nm="Piano" snm="Pno."
V:1
"Am" A,B,CD E4 | E2 FD E4 | E2 A2 c2 A2 |"E7" B6 z2 |"Dm7" A2 A2 F2 F2 |"Am" E2 E2"Dm" D2 F2 | %6
w: １．あ か い く つ|は い て た|お ん な の|こ|い じん さん に|つ れら れ て|
w: ２．よ こ は ま の|は と ば から|ふ ねに の っ|て|い じん さん に|つ れら れ て|
w: ３．い ー ま で は|あ お い めに|な っ ちゃ っ|て|い じん さん の|お く に に|
w: ４．あ か い く つ|みる た び に|か ん が え|る|い じん さん に|あ う た び|
"E7" E2 F2 E2 E2 |"Am" A6 z2 |][M:4/4]"Am" A,B,CD E4 | E2 FD E4 | E2 A2 c2 A2 |"E7" B6 z2 | %12
w: い っ ちゃ っ|た|１．A- ka- i ku- tsu|ha- i- te- ta|o- n- na no|ko|
w: い っ ちゃ っ|た|２．Yo- ko- ha- ma no|ha- to- ba kara|fu- ne ni no- t-|te|
w: い る ん だ|ろ|３．I- * ma de wa|a- o- i me ni|na- t- cha- t-|te|
w: か ん が え|る|４．A- ka- i ku- tsu|miru- ta- bi ni|ka- n- ga- e-|ru|
"Dm7" A2 A2 F2 F2 |"Am" E2 E2"Dm" D2 F2 |"E7" E2 F2 E2 E2 |"Am" A6 z2 |] %16
w: i- jin- san ni|tsu- rera- re- te|i- t- cha- t-|ta.|
w: i- jin- san ni|tsu- rera- re- te|i- t- cha- t-|ta.|
w: i- jin- san no|o- ku- ni ni|i- ru- n da-|ro.|
w: i- jin- san ni|a- u- ta- bi|ka- n- ga- e-|ru.|

